X: 139
T:Bundle and Go Jig
M:6/8
L:1/8
Z:abc by Bruce Osborne - bosborne@kos.net
K:G
GBB BAG|FAA AGF|GBB BAG|AGF E2E|!
GBB BAG|FAA AGF|GAB ABc|AGF G2z:|!
|:Eee efg|fdB AGF|Eee efg|fdB d2d|!
Eee efg|fdB AGF|GAB ABc|AGF G2z:|!
